packages/vibrant-icons/assets/icons/PlayCircle/Thin.svg

<svg width="24" height="24" viewBox="0 0 24 24" fill="none" xmlns="http://www.w3.org/2000/svg">
<path d="M11.9999 22.8499C9.1019 22.8499 6.3769 21.7209 4.3274 19.6724C2.2784 17.6229 1.1499 14.8984 1.1499 11.9999C1.1499 9.1014 2.2789 6.3769 4.3274 4.3274C6.3769 2.2789 9.1019 1.1499 11.9999 1.1499C14.8979 1.1499 17.6229 2.2789 19.6724 4.3274C21.7214 6.3769 22.8499 9.1014 22.8499 11.9999C22.8499 14.8984 21.7209 17.6229 19.6724 19.6724C17.6229 21.7214 14.8984 22.8499 11.9999 22.8499ZM11.9999 2.8499C6.9544 2.8499 2.8499 6.9544 2.8499 11.9999C2.8499 17.0454 6.9544 21.1499 11.9999 21.1499C17.0454 21.1499 21.1499 17.0454 21.1499 11.9999C21.1499 6.9544 17.0454 2.8499 11.9999 2.8499ZM9.6499 8.44735C9.6499 8.36912 9.73568 8.32119 9.80231 8.36219L15.5755 11.9147C15.639 11.9538 15.639 12.046 15.5755 12.0851L9.80231 15.6376C9.73568 15.6786 9.6499 15.6307 9.6499 15.5525V8.44735Z" fill="#0C0C0C"/>
</svg>

<svg xmlns="http://www.w3.org/2000/svg" width="24" height="24" fill="none"><path fill="#0C0C0C" d="M12 22.85a10.78 10.78 0 0 1-7.673-3.178A10.78 10.78 0 0 1 1.15 12c0-2.899 1.129-5.623 3.177-7.673A10.78 10.78 0 0 1 12 1.15c2.898 0 5.623 1.129 7.672 3.177A10.78 10.78 0 0 1 22.85 12c0 2.898-1.13 5.623-3.178 7.672A10.78 10.78 0 0 1 12 22.85m0-20c-5.046 0-9.15 4.104-9.15 9.15 0 5.045 4.104 9.15 9.15 9.15 5.045 0 9.15-4.105 9.15-9.15 0-5.046-4.105-9.15-9.15-9.15M9.65 8.447a.1.1 0 0 1 .152-.085l5.774 3.553a.1.1 0 0 1 0 .17l-5.774 3.553a.1.1 0 0 1-.152-.085z"/></svg>
